svg/disk.svg

<?xml version="1.0" encoding="UTF-8"?>
<svg xmlns="http://www.w3.org/2000/svg" xmlns:xlink="http://www.w3.org/1999/xlink" width="32" height="32" viewBox="0 0 32 32">
<path fill-rule="nonzero" fill="rgb(0%, 0%, 0%)" fill-opacity="1" d="M 4.921875 0 C 4.328125 0.0078125 3.824219 0.4375 3.71875 1.019531 L 0.398438 20.640625 C 0.679688 20.535156 0.980469 20.480469 1.28125 20.480469 L 30.71875 20.480469 C 31.019531 20.480469 31.292969 20.546875 31.558594 20.640625 L 28.28125 1.019531 C 28.175781 0.4375 27.675781 0.0078125 27.082031 0 Z M 16 5.121094 C 20.945312 5.121094 24.960938 7.984375 24.960938 11.519531 C 24.960938 15.054688 20.945312 17.921875 16 17.921875 C 11.054688 17.921875 7.039062 15.054688 7.039062 11.519531 C 7.039062 7.984375 11.054688 5.121094 16 5.121094 M 16 9.601562 C 14.941406 9.601562 14.078125 10.171875 14.078125 10.878906 C 14.078125 11.585938 14.941406 12.160156 16 12.160156 C 17.058594 12.160156 17.921875 11.585938 17.921875 10.878906 C 17.921875 10.171875 17.058594 9.601562 16 9.601562 M 1.28125 21.761719 C 0.574219 21.761719 0 22.332031 0 23.039062 L 0 30.71875 C 0 31.425781 0.574219 32 1.28125 32 L 30.71875 32 C 31.425781 32 32 31.425781 32 30.71875 L 32 23.039062 C 32 22.332031 31.425781 21.761719 30.71875 21.761719 Z M 25.601562 25.601562 C 26.308594 25.601562 26.878906 26.175781 26.878906 26.882812 C 26.878906 27.589844 26.304688 28.164062 25.597656 28.160156 C 24.890625 28.160156 24.320312 27.585938 24.320312 26.878906 C 24.320312 26.171875 24.894531 25.601562 25.601562 25.601562 "/>
</svg>

<svg role="img" viewBox="0 0 32 32" xmlns="http://www.w3.org/2000/svg"><path d="M4.922 0a1.24 1.24 0 0 0-1.203 1.02L.399 20.64c.28-.105.581-.16.882-.16H30.72c.3 0 .574.067.84.16L28.28 1.02A1.24 1.24 0 0 0 27.082 0ZM16 5.121c4.945 0 8.96 2.863 8.96 6.399s-4.015 6.402-8.96 6.402-8.96-2.867-8.96-6.402 4.014-6.4 8.96-6.4m0 4.48c-1.059 0-1.922.57-1.922 1.278 0 .707.863 1.281 1.922 1.281s1.922-.574 1.922-1.281S17.059 9.602 16 9.602M1.281 21.762c-.707 0-1.281.57-1.281 1.277v7.68C0 31.426.574 32 1.281 32H30.72c.707 0 1.281-.574 1.281-1.281v-7.68c0-.707-.574-1.277-1.281-1.277Zm24.32 3.84c.708 0 1.278.574 1.278 1.28a1.279 1.279 0 1 1-1.277-1.281" fill="rgb(0%, 0%, 0%)"/></svg>
